assets/Other/icon-speaker.svg

<svg width="14" height="15" viewBox="0 0 14 15" fill="none" xmlns="http://www.w3.org/2000/svg">
<path d="M6.38246 1.48141C6.09984 1.2 5.53461 1.2 5.25199 1.48141C4.96938 1.76282 4.96938 2.23183 5.25199 2.60704L10.7159 7.95377C10.9985 8.23518 11.5638 8.23518 11.8464 7.95377C12.129 7.67237 12.129 7.10955 11.8464 6.82814L6.38246 1.48141Z" fill="#222222"/>
<path d="M4.96937 3.73267L10.0565 8.79799H9.86807C8.45498 9.0794 7.0419 9.82982 6.00564 10.7678L2.99106 7.76617C3.93311 6.64054 4.59255 5.32731 4.96937 3.82647V3.73267Z" fill="#222222"/>
<path d="M5.08699 11.7269L2.13995 8.69L0.6333 10.2321C0.162272 10.7011 0.162272 11.5453 0.6333 12.0143L1.85797 13.2337C2.329 13.7028 3.17685 13.7028 3.64788 13.2337L5.08699 11.7269Z" fill="#222222"/>
<path d="M8.30713 10.4431L7.93031 10.0678C7.82451 10.1205 7.7187 10.2028 7.59622 10.298C7.50059 10.3723 7.39478 10.4546 7.27087 10.5369L7.8361 11.0997C8.02452 11.2873 8.02452 11.4749 7.8361 11.6625L7.27087 12.2253L6.32881 11.3811L5.19835 12.5067L7.08246 14.2889C7.36508 14.5704 7.93031 14.5704 8.21293 14.2889C8.49554 14.0075 8.49554 13.4447 8.21293 13.1633L7.7419 12.6943L8.30713 12.1315C8.77816 11.6625 8.77816 10.9121 8.30713 10.4431Z" fill="#222222"/>
</svg>

<svg xmlns="http://www.w3.org/2000/svg" width="14" height="15" fill="none" viewBox="0 0 14 15"><path fill="#222" d="M6.382 1.481c-.282-.281-.847-.281-1.13 0s-.283.75 0 1.126l5.464 5.347c.283.281.848.281 1.13 0 .283-.282.283-.844 0-1.126zM4.97 3.733l5.087 5.065h-.189c-1.413.281-2.826 1.032-3.862 1.97L2.99 7.766q1.414-1.688 1.978-3.94zM5.087 11.727 2.14 8.69.633 10.232c-.47.47-.47 1.313 0 1.782l1.225 1.22c.471.469 1.319.469 1.79 0zM8.307 10.443l-.377-.375c-.105.053-.211.135-.334.23-.095.074-.201.157-.325.239l.565.563q.283.28 0 .563l-.565.562-.942-.844-1.13 1.126 1.883 1.782c.283.281.848.281 1.13 0 .284-.281.284-.844 0-1.126l-.47-.469.565-.562a1.185 1.185 0 0 0 0-1.689"/></svg>
